icons/evolvere-black-folders-vivid-dark/apps/64/view-statistics.svg

<?xml version="1.0" encoding="UTF-8" standalone="no"?>
<!-- Created with Inkscape (http://www.inkscape.org/) -->

<svg
   xmlns:dc="http://purl.org/dc/elements/1.1/"
   xmlns:cc="http://creativecommons.org/ns#"
   xmlns:rdf="http://www.w3.org/1999/02/22-rdf-syntax-ns#"
   xmlns:svg="http://www.w3.org/2000/svg"
   xmlns="http://www.w3.org/2000/svg"
   xmlns:xlink="http://www.w3.org/1999/xlink"
   xmlns:sodipodi="http://sodipodi.sourceforge.net/DTD/sodipodi-0.dtd"
   xmlns:inkscape="http://www.inkscape.org/namespaces/inkscape"
   width="64"
   height="64"
   id="svg13094"
   version="1.1"
   inkscape:version="0.48.4 r9939"
   sodipodi:docname="view-statistics.svg">
  <sodipodi:namedview
     id="base"
     pagecolor="#cbcdd6"
     bordercolor="#666666"
     borderopacity="1.0"
     inkscape:pageopacity="1"
     inkscape:pageshadow="2"
     inkscape:zoom="11.313709"
     inkscape:cx="32.048866"
     inkscape:cy="33.31952"
     inkscape:document-units="px"
     inkscape:current-layer="svg13094"
     showgrid="true"
     inkscape:snap-bbox="true"
     inkscape:bbox-paths="true"
     inkscape:bbox-nodes="true"
     inkscape:snap-bbox-edge-midpoints="true"
     inkscape:snap-bbox-midpoints="true"
     inkscape:object-paths="true"
     inkscape:snap-intersection-paths="true"
     inkscape:object-nodes="true"
     inkscape:snap-smooth-nodes="true"
     inkscape:snap-midpoints="true"
     inkscape:snap-object-midpoints="true"
     inkscape:snap-center="true"
     showguides="false"
     inkscape:guide-bbox="true"
     inkscape:window-width="1920"
     inkscape:window-height="1017"
     inkscape:window-x="-5"
     inkscape:window-y="26"
     inkscape:window-maximized="1"
     inkscape:snap-global="false"
     fit-margin-top="0"
     fit-margin-left="0"
     fit-margin-right="0"
     fit-margin-bottom="0"
     showborder="true"
     inkscape:showpageshadow="false"
     inkscape:snap-page="true">
    <inkscape:grid
       type="xygrid"
       id="grid3075"
       empspacing="5"
       visible="true"
       enabled="true"
       snapvisiblegridlinesonly="true"
       originx="1.6362304e-08px"
       originy="18px" />
    <sodipodi:guide
       orientation="0,1"
       position="-11,30"
       id="guide9148" />
    <sodipodi:guide
       orientation="1,0"
       position="32,70"
       id="guide9150" />
  </sodipodi:namedview>
  <defs
     id="defs13096">
    <linearGradient
       id="linearGradient3094">
      <stop
         offset="0"
         style="stop-color:#bdc4cf;stop-opacity:1;"
         id="stop3096" />
      <stop
         offset="1"
         style="stop-color:#a1a8ba;stop-opacity:1;"
         id="stop3104" />
    </linearGradient>
    <radialGradient
       inkscape:collect="always"
       xlink:href="#linearGradient3094"
       id="radialGradient3886"
       cx="30.739782"
       cy="17.037395"
       fx="30.739782"
       fy="17.037395"
       r="32"
       gradientTransform="matrix(6.8856667e-8,1.5625001,-1.4375,6.3348129e-8,57.491254,-34.030912)"
       gradientUnits="userSpaceOnUse" />
  </defs>
  <metadata
     id="metadata13099">
    <rdf:RDF>
      <cc:Work
         rdf:about="">
        <dc:format>image/svg+xml</dc:format>
        <dc:type
           rdf:resource="http://purl.org/dc/dcmitype/StillImage" />
        <dc:title />
      </cc:Work>
    </rdf:RDF>
  </metadata>
  <path
     id="path6538"
     d="m 0,2 0,32 0,28 2,2 30,0 30,0 2,-2 0,-28 0,-32 -32,0 z"
     style="color:#000000;fill:url(#radialGradient3886);fill-opacity:1;fill-rule:nonzero;stroke:none;stroke-width:2.28571415;marker:none;visibility:visible;display:inline;overflow:visible;enable-background:accumulate"
     inkscape:connector-curvature="0"
     sodipodi:nodetypes="ccccccccccc" />
  <path
     style="color:#000000;fill:#e7ecf0;fill-opacity:1;fill-rule:nonzero;stroke:none;marker:none;visibility:visible;display:inline;overflow:visible;enable-background:accumulate"
     d="M 2,0 0,1 0,2 19.5625,2 39.125,2 64,2 64,1 62,0 39.125,0 19.5625,0 z"
     id="path6688"
     inkscape:connector-curvature="0"
     sodipodi:nodetypes="ccccccccccc" />
  <path
     d="M 64,4 62,2 64,1 z"
     id="path3028"
     style="fill:#000000;fill-opacity:0.10215053"
     inkscape:connector-curvature="0"
     sodipodi:nodetypes="cccc" />
  <g
     id="g3043"
     inkscape:export-filename="folder.png"
     inkscape:export-xdpi="90"
     inkscape:export-ydpi="90"
     transform="translate(-0.62500009,0.082283)" />
  <g
     id="scalable"
     transform="matrix(1.0385892,0,0,1.0385892,1214.7222,1878.8121)"
     inkscape:label="#g3701"
     style="fill:#ffffff" />
  <path
     style="fill:#ffffff;fill-opacity:0.16077737;fill-rule:nonzero"
     d="M 0,1 0,4 2,2 32,2 62,2 64,1 32,1 z"
     id="path4298"
     inkscape:connector-curvature="0"
     sodipodi:nodetypes="cccccccc" />
  <path
     style="fill:#000000;fill-opacity:0.10215053;fill-rule:nonzero"
     d="m 63,0.5 0,33.5 0,29 1,-1 0,-28 0,-33 z m 0,62.5 -31,0 -31,0 1,1 30,0 30,0 z"
     id="path4366"
     inkscape:connector-curvature="0"
     sodipodi:nodetypes="cccccccccccccc" />
  <path
     style="fill:#ffffff;fill-opacity:0.3010753;fill-rule:nonzero"
     d="M 0,1 0,34 0,62 1,63 1,34 1,3 2,2 1,1.46875 1,1 z"
     id="path3864"
     inkscape:connector-curvature="0"
     sodipodi:nodetypes="cccccccccc" />
  <g
     transform="translate(-0.97645215,0.126999)"
     id="g3875"
     style="fill:#800080">
    <path
       transform="translate(1,0)"
       id="rect3891"
       d="m 4,2 0,3 -4,0 0,1 4,0 0,14 -4,0 0,1 4,0 0,14 -4,0 0,1 4,0 0,14 -4,0 0,1 4,0 0,13 1,0 0,-13 14,0 0,13 1,0 0,-13 14,0 0,13 1,0 0,-13 14,0 0,13 1,0 0,-13 14,0 0,-1 -14,0 0,-14 14,0 0,-1 -14,0 0,-14 14,0 0,-1 L 50,20 50,6 64,6 64,5 50,5 50,2 49,2 49,5 35,5 35,2 34,2 34,5 20,5 20,2 19,2 19,5 5,5 5,2 4,2 z M 5,6 19,6 19,20 5,20 5,6 z M 20,6 34,6 34,20 20,20 20,6 z M 35,6 49,6 49,20 35,20 35,6 z M 5,21 19,21 19,35 5,35 5,21 z m 15,0 14,0 0,14 -14,0 0,-14 z m 15,0 14,0 0,14 -14,0 0,-14 z M 5,36 19,36 19,50 5,50 5,36 z m 15,0 14,0 0,14 -14,0 0,-14 z m 15,0 14,0 0,14 -14,0 0,-14 z"
       style="color:#000000;fill:#800080;fill-opacity:0.15770611;stroke:none;stroke-width:2;marker:none;visibility:visible;display:inline;overflow:visible;enable-background:accumulate"
       inkscape:connector-curvature="0" />
    <path
       transform="translate(1,0)"
       id="rect3889"
       d="m 9,2 0,8 -9,0 0,1 9,0 0,4 -9,0 0,1 9,0 0,9 -9,0 0,1 9,0 0,4 -9,0 0,1 9,0 0,9 -9,0 0,1 9,0 0,4 -9,0 0,1 9,0 0,9 -9,0 0,1 9,0 0,4 -9,0 0,1 9,0 0,3 1,0 0,-3 4,0 0,3 1,0 0,-3 9,0 0,3 1,0 0,-3 4,0 0,3 1,0 0,-3 9,0 0,3 1,0 0,-3 4,0 0,3 1,0 0,-3 9,0 0,3 1,0 0,-3 4,0 0,3 1,0 0,-3 4,0 0,-1 -4,0 0,-4 4,0 0,-1 -4,0 0,-9 4,0 0,-1 -4,0 0,-4 4,0 0,-1 -4,0 0,-9 4,0 0,-1 -4,0 0,-4 4,0 0,-1 -4,0 0,-9 4,0 0,-1 -4,0 0,-4 4,0 0,-1 -4,0 0,-8 -1,0 0,8 -4,0 0,-8 -1,0 0,8 -9,0 0,-8 -1,0 0,8 -4,0 0,-8 -1,0 0,8 -9,0 0,-8 -1,0 0,8 -4,0 0,-8 -1,0 0,8 -9,0 0,-8 -1,0 0,8 -4,0 0,-8 -1,0 z m 1,9 4,0 0,4 -4,0 0,-4 z m 5,0 9,0 0,4 -9,0 0,-4 z m 10,0 4,0 0,4 -4,0 0,-4 z m 5,0 9,0 0,4 -9,0 0,-4 z m 10,0 4,0 0,4 -4,0 0,-4 z m 5,0 9,0 0,4 -9,0 0,-4 z m 10,0 4,0 0,4 -4,0 0,-4 z m -45,5 4,0 0,9 -4,0 0,-9 z m 5,0 9,0 0,9 -9,0 0,-9 z m 10,0 4,0 0,9 -4,0 0,-9 z m 5,0 9,0 0,9 -9,0 0,-9 z m 10,0 4,0 0,9 -4,0 0,-9 z m 5,0 9,0 0,9 -9,0 0,-9 z m 10,0 4,0 0,9 -4,0 0,-9 z m -45,10 4,0 0,4 -4,0 0,-4 z m 5,0 9,0 0,4 -9,0 0,-4 z m 10,0 4,0 0,4 -4,0 0,-4 z m 5,0 9,0 0,4 -9,0 0,-4 z m 10,0 4,0 0,4 -4,0 0,-4 z m 5,0 9,0 0,4 -9,0 0,-4 z m 10,0 4,0 0,4 -4,0 0,-4 z m -45,5 4,0 0,9 -4,0 0,-9 z m 5,0 9,0 0,9 -9,0 0,-9 z m 10,0 4,0 0,9 -4,0 0,-9 z m 5,0 9,0 0,9 -9,0 0,-9 z m 10,0 4,0 0,9 -4,0 0,-9 z m 5,0 9,0 0,9 -9,0 0,-9 z m 10,0 4,0 0,9 -4,0 0,-9 z m -45,10 4,0 0,4 -4,0 0,-4 z m 5,0 9,0 0,4 -9,0 0,-4 z m 10,0 4,0 0,4 -4,0 0,-4 z m 5,0 9,0 0,4 -9,0 0,-4 z m 10,0 4,0 0,4 -4,0 0,-4 z m 5,0 9,0 0,4 -9,0 0,-4 z m 10,0 4,0 0,4 -4,0 0,-4 z m -45,5 4,0 0,9 -4,0 0,-9 z m 5,0 9,0 0,9 -9,0 0,-9 z m 10,0 4,0 0,9 -4,0 0,-9 z m 5,0 9,0 0,9 -9,0 0,-9 z m 10,0 4,0 0,9 -4,0 0,-9 z m 5,0 9,0 0,9 -9,0 0,-9 z m 10,0 4,0 0,9 -4,0 0,-9 z m -45,10 4,0 0,4 -4,0 0,-4 z m 5,0 9,0 0,4 -9,0 0,-4 z m 10,0 4,0 0,4 -4,0 0,-4 z m 5,0 9,0 0,4 -9,0 0,-4 z m 10,0 4,0 0,4 -4,0 0,-4 z m 5,0 9,0 0,4 -9,0 0,-4 z m 10,0 4,0 0,4 -4,0 0,-4 z"
       style="color:#000000;fill:#800080;fill-opacity:0.05555558;stroke:none;stroke-width:2;marker:none;visibility:visible;display:inline;overflow:visible;enable-background:accumulate"
       inkscape:connector-curvature="0" />
  </g>
  <rect
     y="37"
     x="13"
     height="14.126999"
     width="8"
     id="rect3781"
     style="color:#000000;fill:#a9503d;fill-opacity:1;fill-rule:nonzero;stroke:none;stroke-width:1;marker:none;visibility:visible;display:inline;overflow:visible;enable-background:accumulate" />
  <rect
     y="24"
     x="43"
     height="27"
     width="8"
     id="rect3783"
     style="color:#000000;fill:#c37e22;fill-opacity:1;fill-rule:nonzero;stroke:none;stroke-width:1;marker:none;visibility:visible;display:inline;overflow:visible;enable-background:accumulate" />
  <rect
     style="color:#000000;fill:#558d2a;fill-opacity:1;fill-rule:nonzero;stroke:none;stroke-width:1;marker:none;visibility:visible;display:inline;overflow:visible;enable-background:accumulate"
     id="rect3779"
     width="8"
     height="39"
     x="28"
     y="12" />
  <path
     inkscape:connector-curvature="0"
     style="color:#000000;fill:#2b384c;fill-opacity:0.65603447;fill-rule:nonzero;stroke:none;stroke-width:1;marker:none;visibility:visible;display:inline;overflow:visible;enable-background:accumulate"
     d="m 7,8 0,50 1,0 49,0 0,-1 L 8,57 8,8 7,8 z m 2.0000001,4 0,1 L 10,13 10,12 9.0000001,12 z m 0,5 0,1 L 10,18 10,17 9.0000001,17 z m 0,5 0,1 L 10,23 10,22 9.0000001,22 z m 0,5 0,1 L 10,28 10,27 9.0000001,27 z m 0,5 0,1 L 10,33 10,32 9.0000001,32 z m 0,5 0,1 L 10,38 10,37 9.0000001,37 z m 0,5 0,1 L 10,43 10,42 9.0000001,42 z m 0,5 0,1 L 10,48 10,47 9.0000001,47 z m 0,5 0,1 L 10,53 10,52 9.0000001,52 z M 12,55 l 0,1 1,0 0,-1 -1,0 z m 5,0 0,1 1,0 0,-1 -1,0 z m 5,0 0,1 1,0 0,-1 -1,0 z m 5,0 0,1 1,0 0,-1 -1,0 z m 5,0 0,1 1,0 0,-1 -1,0 z m 5,0 0,1 1,0 0,-1 -1,0 z m 5,0 0,1 1,0 0,-1 -1,0 z m 5,0 0,1 1,0 0,-1 -1,0 z m 5,0 0,1 1,0 0,-1 -1,0 z"
     id="rect3009" />
</svg>

<?xml version="1.0" encoding="UTF-8" standalone="no"?>
<!-- Created with Inkscape (http://www.inkscape.org/) -->

<svg
   xmlns:dc="http://purl.org/dc/elements/1.1/"
   xmlns:cc="http://creativecommons.org/ns#"
   xmlns:rdf="http://www.w3.org/1999/02/22-rdf-syntax-ns#"
   xmlns:svg="http://www.w3.org/2000/svg"
   xmlns="http://www.w3.org/2000/svg"
   xmlns:xlink="http://www.w3.org/1999/xlink"
   xmlns:sodipodi="http://sodipodi.sourceforge.net/DTD/sodipodi-0.dtd"
   xmlns:inkscape="http://www.inkscape.org/namespaces/inkscape"
   width="64"
   height="64"
   id="svg13094"
   version="1.1"
   inkscape:version="0.48.4 r9939"
   sodipodi:docname="view-statistics.svg">
  <sodipodi:namedview
     id="base"
     pagecolor="#ffffff"
     bordercolor="#666666"
     borderopacity="1.0"
     inkscape:pageopacity="0"
     inkscape:pageshadow="2"
     inkscape:zoom="11.313709"
     inkscape:cx="26.531559"
     inkscape:cy="31.864659"
     inkscape:document-units="px"
     inkscape:current-layer="svg13094"
     showgrid="true"
     inkscape:snap-bbox="true"
     inkscape:bbox-paths="true"
     inkscape:bbox-nodes="true"
     inkscape:snap-bbox-edge-midpoints="true"
     inkscape:snap-bbox-midpoints="true"
     inkscape:object-paths="true"
     inkscape:snap-intersection-paths="true"
     inkscape:object-nodes="true"
     inkscape:snap-smooth-nodes="true"
     inkscape:snap-midpoints="true"
     inkscape:snap-object-midpoints="true"
     inkscape:snap-center="true"
     showguides="false"
     inkscape:guide-bbox="true"
     inkscape:window-width="1920"
     inkscape:window-height="1017"
     inkscape:window-x="-5"
     inkscape:window-y="26"
     inkscape:window-maximized="1"
     inkscape:snap-global="true"
     fit-margin-top="0"
     fit-margin-left="0"
     fit-margin-right="0"
     fit-margin-bottom="0"
     showborder="true"
     inkscape:showpageshadow="false"
     inkscape:snap-page="true">
    <inkscape:grid
       type="xygrid"
       id="grid3075"
       empspacing="5"
       visible="true"
       enabled="true"
       snapvisiblegridlinesonly="true"
       originx="1.6362304e-08px"
       originy="18px" />
    <sodipodi:guide
       orientation="0,1"
       position="-11,30"
       id="guide9148" />
    <sodipodi:guide
       orientation="1,0"
       position="32,70"
       id="guide9150" />
  </sodipodi:namedview>
  <defs
     id="defs13096">
    <linearGradient
       id="linearGradient3094-6">
      <stop
         offset="0"
         style="stop-color:#bdc4cf;stop-opacity:1;"
         id="stop3096-1" />
      <stop
         offset="1"
         style="stop-color:#a1a8ba;stop-opacity:1;"
         id="stop3104-5" />
    </linearGradient>
    <radialGradient
       inkscape:collect="always"
       xlink:href="#linearGradient3094-6"
       id="radialGradient3094"
       gradientUnits="userSpaceOnUse"
       gradientTransform="matrix(6.8856667e-8,1.5625001,-1.4375,6.3348129e-8,57.491254,-34.030912)"
       cx="30.739782"
       cy="17.037395"
       fx="30.739782"
       fy="17.037395"
       r="32" />
  </defs>
  <metadata
     id="metadata13099">
    <rdf:RDF>
      <cc:Work
         rdf:about="">
        <dc:format>image/svg+xml</dc:format>
        <dc:type
           rdf:resource="http://purl.org/dc/dcmitype/StillImage" />
        <dc:title />
      </cc:Work>
    </rdf:RDF>
  </metadata>
  <path
     id="path6538"
     d="m 0,2 0,32 0,28 2,2 30,0 30,0 2,-2 0,-28 0,-32 -32,0 z"
     style="color:#000000;fill:url(#radialGradient3094);fill-opacity:1;fill-rule:nonzero;stroke:none;stroke-width:2.28571415;marker:none;visibility:visible;display:inline;overflow:visible;enable-background:accumulate"
     inkscape:connector-curvature="0"
     sodipodi:nodetypes="ccccccccccc" />
  <path
     style="color:#000000;fill:#e7ecf0;fill-opacity:1;fill-rule:nonzero;stroke:none;marker:none;visibility:visible;display:inline;overflow:visible;enable-background:accumulate"
     d="M 2,0 0,1 0,2 19.5625,2 39.125,2 64,2 64,1 62,0 39.125,0 19.5625,0 z"
     id="path6688"
     inkscape:connector-curvature="0"
     sodipodi:nodetypes="ccccccccccc" />
  <path
     d="M 64,4 62,2 64,1 z"
     id="path3028"
     style="fill:#000000;fill-opacity:0.10215053"
     inkscape:connector-curvature="0"
     sodipodi:nodetypes="cccc" />
  <g
     id="g3043"
     inkscape:export-filename="folder.png"
     inkscape:export-xdpi="90"
     inkscape:export-ydpi="90"
     transform="translate(-0.62500009,0.082283)" />
  <g
     id="scalable"
     transform="matrix(1.0385892,0,0,1.0385892,1214.7222,1878.8121)"
     inkscape:label="#g3701"
     style="fill:#ffffff" />
  <path
     style="fill:#ffffff;fill-opacity:0.54480286;fill-rule:nonzero"
     d="M 0,1 0,4 2,2 32,2 62,2 64,1 32,1 z"
     id="path4298"
     inkscape:connector-curvature="0"
     sodipodi:nodetypes="cccccccc" />
  <path
     style="fill:#000000;fill-opacity:0.10215053;fill-rule:nonzero"
     d="m 63,0.5 0,33.5 0,29 1,-1 0,-28 0,-33 z m 0,62.5 -31,0 -31,0 1,1 30,0 30,0 z"
     id="path4366"
     inkscape:connector-curvature="0"
     sodipodi:nodetypes="cccccccccccccc" />
  <path
     style="fill:#ffffff;fill-opacity:0.64247311;fill-rule:nonzero"
     d="M 0,1 0,34 0,62 1,63 1,34 1,3 2,2 1,1.46875 1,1 z"
     id="path3864"
     inkscape:connector-curvature="0"
     sodipodi:nodetypes="cccccccccc" />
  <g
     transform="translate(-0.97645215,0.126999)"
     id="g3875"
     style="fill:#800080">
    <path
       transform="translate(1,0)"
       id="rect3891"
       d="m 4,2 0,3 -4,0 0,1 4,0 0,14 -4,0 0,1 4,0 0,14 -4,0 0,1 4,0 0,14 -4,0 0,1 4,0 0,13 1,0 0,-13 14,0 0,13 1,0 0,-13 14,0 0,13 1,0 0,-13 14,0 0,13 1,0 0,-13 14,0 0,-1 -14,0 0,-14 14,0 0,-1 -14,0 0,-14 14,0 0,-1 L 50,20 50,6 64,6 64,5 50,5 50,2 49,2 49,5 35,5 35,2 34,2 34,5 20,5 20,2 19,2 19,5 5,5 5,2 4,2 z M 5,6 19,6 19,20 5,20 5,6 z M 20,6 34,6 34,20 20,20 20,6 z M 35,6 49,6 49,20 35,20 35,6 z M 5,21 19,21 19,35 5,35 5,21 z m 15,0 14,0 0,14 -14,0 0,-14 z m 15,0 14,0 0,14 -14,0 0,-14 z M 5,36 19,36 19,50 5,50 5,36 z m 15,0 14,0 0,14 -14,0 0,-14 z m 15,0 14,0 0,14 -14,0 0,-14 z"
       style="color:#000000;fill:#800080;fill-opacity:0.15770611;stroke:none;stroke-width:2;marker:none;visibility:visible;display:inline;overflow:visible;enable-background:accumulate"
       inkscape:connector-curvature="0" />
    <path
       transform="translate(1,0)"
       id="rect3889"
       d="m 9,2 0,8 -9,0 0,1 9,0 0,4 -9,0 0,1 9,0 0,9 -9,0 0,1 9,0 0,4 -9,0 0,1 9,0 0,9 -9,0 0,1 9,0 0,4 -9,0 0,1 9,0 0,9 -9,0 0,1 9,0 0,4 -9,0 0,1 9,0 0,3 1,0 0,-3 4,0 0,3 1,0 0,-3 9,0 0,3 1,0 0,-3 4,0 0,3 1,0 0,-3 9,0 0,3 1,0 0,-3 4,0 0,3 1,0 0,-3 9,0 0,3 1,0 0,-3 4,0 0,3 1,0 0,-3 4,0 0,-1 -4,0 0,-4 4,0 0,-1 -4,0 0,-9 4,0 0,-1 -4,0 0,-4 4,0 0,-1 -4,0 0,-9 4,0 0,-1 -4,0 0,-4 4,0 0,-1 -4,0 0,-9 4,0 0,-1 -4,0 0,-4 4,0 0,-1 -4,0 0,-8 -1,0 0,8 -4,0 0,-8 -1,0 0,8 -9,0 0,-8 -1,0 0,8 -4,0 0,-8 -1,0 0,8 -9,0 0,-8 -1,0 0,8 -4,0 0,-8 -1,0 0,8 -9,0 0,-8 -1,0 0,8 -4,0 0,-8 -1,0 z m 1,9 4,0 0,4 -4,0 0,-4 z m 5,0 9,0 0,4 -9,0 0,-4 z m 10,0 4,0 0,4 -4,0 0,-4 z m 5,0 9,0 0,4 -9,0 0,-4 z m 10,0 4,0 0,4 -4,0 0,-4 z m 5,0 9,0 0,4 -9,0 0,-4 z m 10,0 4,0 0,4 -4,0 0,-4 z m -45,5 4,0 0,9 -4,0 0,-9 z m 5,0 9,0 0,9 -9,0 0,-9 z m 10,0 4,0 0,9 -4,0 0,-9 z m 5,0 9,0 0,9 -9,0 0,-9 z m 10,0 4,0 0,9 -4,0 0,-9 z m 5,0 9,0 0,9 -9,0 0,-9 z m 10,0 4,0 0,9 -4,0 0,-9 z m -45,10 4,0 0,4 -4,0 0,-4 z m 5,0 9,0 0,4 -9,0 0,-4 z m 10,0 4,0 0,4 -4,0 0,-4 z m 5,0 9,0 0,4 -9,0 0,-4 z m 10,0 4,0 0,4 -4,0 0,-4 z m 5,0 9,0 0,4 -9,0 0,-4 z m 10,0 4,0 0,4 -4,0 0,-4 z m -45,5 4,0 0,9 -4,0 0,-9 z m 5,0 9,0 0,9 -9,0 0,-9 z m 10,0 4,0 0,9 -4,0 0,-9 z m 5,0 9,0 0,9 -9,0 0,-9 z m 10,0 4,0 0,9 -4,0 0,-9 z m 5,0 9,0 0,9 -9,0 0,-9 z m 10,0 4,0 0,9 -4,0 0,-9 z m -45,10 4,0 0,4 -4,0 0,-4 z m 5,0 9,0 0,4 -9,0 0,-4 z m 10,0 4,0 0,4 -4,0 0,-4 z m 5,0 9,0 0,4 -9,0 0,-4 z m 10,0 4,0 0,4 -4,0 0,-4 z m 5,0 9,0 0,4 -9,0 0,-4 z m 10,0 4,0 0,4 -4,0 0,-4 z m -45,5 4,0 0,9 -4,0 0,-9 z m 5,0 9,0 0,9 -9,0 0,-9 z m 10,0 4,0 0,9 -4,0 0,-9 z m 5,0 9,0 0,9 -9,0 0,-9 z m 10,0 4,0 0,9 -4,0 0,-9 z m 5,0 9,0 0,9 -9,0 0,-9 z m 10,0 4,0 0,9 -4,0 0,-9 z m -45,10 4,0 0,4 -4,0 0,-4 z m 5,0 9,0 0,4 -9,0 0,-4 z m 10,0 4,0 0,4 -4,0 0,-4 z m 5,0 9,0 0,4 -9,0 0,-4 z m 10,0 4,0 0,4 -4,0 0,-4 z m 5,0 9,0 0,4 -9,0 0,-4 z m 10,0 4,0 0,4 -4,0 0,-4 z"
       style="color:#000000;fill:#800080;fill-opacity:0.05555558;stroke:none;stroke-width:2;marker:none;visibility:visible;display:inline;overflow:visible;enable-background:accumulate"
       inkscape:connector-curvature="0" />
  </g>
  <rect
     y="37"
     x="13"
     height="14.126999"
     width="8"
     id="rect3781"
     style="color:#000000;fill:#b8462e;fill-opacity:1;fill-rule:nonzero;stroke:none;stroke-width:1;marker:none;visibility:visible;display:inline;overflow:visible;enable-background:accumulate" />
  <rect
     y="24"
     x="43"
     height="27"
     width="8"
     id="rect3783"
     style="color:#000000;fill:#d8810d;fill-opacity:1;fill-rule:nonzero;stroke:none;stroke-width:1;marker:none;visibility:visible;display:inline;overflow:visible;enable-background:accumulate" />
  <rect
     style="color:#000000;fill:#4f9b15;fill-opacity:1;fill-rule:nonzero;stroke:none;stroke-width:1;marker:none;visibility:visible;display:inline;overflow:visible;enable-background:accumulate"
     id="rect3779"
     width="8"
     height="39"
     x="28"
     y="12" />
  <path
     style="color:#000000;fill:#2b384c;fill-opacity:0.76551723;fill-rule:nonzero;stroke:none;stroke-width:1;marker:none;visibility:visible;display:inline;overflow:visible;enable-background:accumulate"
     d="M 7 8 L 7 58 L 8 58 L 57 58 L 57 57 L 8 57 L 8 8 L 7 8 z M 9 12 L 9 13 L 10 13 L 10 12 L 9 12 z M 9 17 L 9 18 L 10 18 L 10 17 L 9 17 z M 9 22 L 9 23 L 10 23 L 10 22 L 9 22 z M 9 27 L 9 28 L 10 28 L 10 27 L 9 27 z M 9 32 L 9 33 L 10 33 L 10 32 L 9 32 z M 9 37 L 9 38 L 10 38 L 10 37 L 9 37 z M 9 42 L 9 43 L 10 43 L 10 42 L 9 42 z M 9 47 L 9 48 L 10 48 L 10 47 L 9 47 z M 9 52 L 9 53 L 10 53 L 10 52 L 9 52 z M 12 55 L 12 56 L 13 56 L 13 55 L 12 55 z M 17 55 L 17 56 L 18 56 L 18 55 L 17 55 z M 22 55 L 22 56 L 23 56 L 23 55 L 22 55 z M 27 55 L 27 56 L 28 56 L 28 55 L 27 55 z M 32 55 L 32 56 L 33 56 L 33 55 L 32 55 z M 37 55 L 37 56 L 38 56 L 38 55 L 37 55 z M 42 55 L 42 56 L 43 56 L 43 55 L 42 55 z M 47 55 L 47 56 L 48 56 L 48 55 L 47 55 z M 52 55 L 52 56 L 53 56 L 53 55 L 52 55 z "
     id="rect3009" />
</svg>
